X:1
T:Lovely Joan
M:4/4
L:1/8
K:C
D-A| A3 B c3 E|G-FD-C D2 DE| F2F-GF-ED-C| G2G-F D2| D2| A2A-B c2d-c|\
B-A GE G3 E|F-GA-B c2E-F|G-FD-C D2||

